X:1
T:Title
%%score { 1 | 2 }
L:1/8
M:4/4
K:G
V:1 treble nm="Grand Piano"
V:2 treble 
V:1
 z4 z2[Q:1/4=110] G2 | B2 d2 A2 B2 | G2 G2 E2 D2 | G2 G2 [DGB]2 [DGB]2 |[M:3/4] [DFA]6 | %5
[M:1/4] G2 |[M:4/4] B2 d2 A2 B2 | G2 G2 E2 D2 | G2 B2 [CFA]3 [B,DG] |[M:3/4] [G,B,DG]6 | %10
[M:1/4] [=FG]2 |[M:4/4] [Ec]2 [Ec]2 [Ec]3 [Ec] | [DB]2 [DB]2 [DB]3 [DB] | [DA]2 [DA]2 [Fd]3 e | %14
[M:9/8] d2 ^c- c [Fd]2- [Fd] [F=c]2 |[M:1/4] G2 |[M:4/4] B2 d2 A2 B2 | G2 G2 E2 D2 | %18
 G2 B2 [FA]3 [DG] |[M:7/4] [B,DG]6 z2 z2 z4 |] %20
V:2
 z4 z2 [G,B,D]2 | [G,DG]2 [G,B,G]2 [G,CG]2 [G,DG]2 | [G,B,D]2 [G,B,D]2 [G,C]2 [G,B,]2 | %3
 [G,B,D]2 [G,B,D]2 G,,2 G,,2 |[M:3/4] D,6 |[M:1/4][K:treble] [G,B,D]2 | %6
[M:4/4] [G,DG]2 [G,B,G]2 [G,CG]2 [G,DG]2 | [G,B,D]2 [G,B,D]2 [G,C]2 [G,B,]2 | %8
 [G,B,D]2 [G,DG]2 D,3 D, |[M:3/4] G,,6 |[M:1/4] G,2 |[M:4/4] [C,G,]2 [C,G,]2 [C,G,]3 [C,G,] | %12
 [G,,G,]2 [G,,G,]2 [G,,G,]3 [G,,G,] | [D,F,]2 [D,F,]2 [D,A,]3[K:treble] [G,B,G] | %14
[M:9/8] [A,F]2[K:bass] [A,E]- [A,E] [D,A,]2- [D,A,] [D,D]2 |[M:1/4][K:treble] [G,B,D]2 | %16
[M:4/4] [G,DG]2 [G,B,G]2 [G,CG]2 [G,DG]2 | [G,B,D]2 [G,B,D]2 [G,C]2 [G,B,]2 | %18
 [G,B,D]2 [G,DG]2[K:bass] [D,C]3 [D,B,] |[M:7/4] [G,,G,]6 z2 z2 z4 |] %20

